img/Client5.svg

<svg width="175" height="90" viewBox="0 0 175 90" fill="none" xmlns="http://www.w3.org/2000/svg">
<rect x="0.5" y="0.5" width="174" height="89" rx="3.5" stroke="#AFB1B8"/>
<path d="M62.4876 61.2777C62.7175 61.5633 62.84 61.9211 62.8336 62.2883C62.8453 62.5278 62.8032 62.7669 62.7104 62.9879C62.6176 63.2089 62.4765 63.4061 62.2975 63.5649C61.851 63.9036 61.2977 64.0691 60.7393 64.0311H58V57.6262H60.6832C61.2129 57.5908 61.7383 57.7412 62.1698 58.0517C62.3431 58.1973 62.4803 58.3814 62.5706 58.5893C62.6609 58.7973 62.7019 59.0235 62.6902 59.2501C62.706 59.6034 62.5954 59.9508 62.3786 60.2295C62.1704 60.4839 61.8826 60.6604 61.5621 60.7301C61.9255 60.7967 62.2535 60.9907 62.4876 61.2777ZM59.2746 60.3108H60.4215C60.6821 60.3302 60.941 60.2546 61.1507 60.098C61.2368 60.0197 61.3038 59.9225 61.3465 59.814C61.3892 59.7055 61.4064 59.5885 61.3969 59.4722C61.405 59.3564 61.3874 59.2402 61.3453 59.1319C61.3033 59.0237 61.2379 58.9262 61.1538 58.8465C60.9378 58.6854 60.6709 58.6087 60.4028 58.6306H59.2746V60.3108ZM61.2629 62.767C61.3549 62.6868 61.4273 62.5864 61.4743 62.4735C61.5213 62.3606 61.5418 62.2383 61.534 62.1162C61.541 61.9927 61.5197 61.8692 61.4716 61.7552C61.4235 61.6413 61.35 61.54 61.2567 61.4591C61.0323 61.2921 60.7563 61.2101 60.4776 61.2276H59.2746V62.9892H60.4931C60.7674 63.0051 61.0389 62.9267 61.2629 62.767Z" fill="#AFB1B8"/>
<path d="M67.9724 64.0312L66.4797 61.528H65.9187V64.0312H64.6348V57.6262H67.0656C67.6783 57.5833 68.284 57.7781 68.7578 58.1706C69.0976 58.5183 69.3025 58.9763 69.3357 59.4622C69.3688 59.9482 69.228 60.43 68.9385 60.8209C68.6386 61.1658 68.229 61.3958 67.7792 61.4717L69.3686 64.0312H67.9724ZM65.9187 60.655H66.969C67.6982 60.655 68.0628 60.3317 68.0628 59.6851C68.0703 59.553 68.0503 59.4208 68.0041 59.297C67.958 59.1731 67.8867 59.0602 67.7948 58.9654C67.5644 58.773 67.2676 58.6796 66.969 58.7057H65.9063L65.9187 60.655Z" fill="#AFB1B8"/>
<path d="M74.9908 62.7421H72.4322L71.9803 64.0312H70.634L72.9838 57.6982H74.4392L76.7796 64.0312H75.4333L74.9908 62.7421ZM74.648 61.7721L73.7131 59.0687L72.7781 61.7721H74.648Z" fill="#AFB1B8"/>
<path d="M83.7759 64.0312H82.5013L79.6436 59.6757V64.0312H78.3721V57.6262H79.6436L82.5013 62.0068V57.6262H83.7759V64.0312Z" fill="#AFB1B8"/>
<path d="M91.0497 62.4981C90.7862 62.9817 90.3846 63.375 89.8966 63.6276C89.3418 63.909 88.7261 64.0477 88.1047 64.0313H85.8359V57.6263H88.1047C88.725 57.61 89.3399 57.7453 89.8966 58.0206C90.3845 58.2674 90.7865 58.6569 91.0497 59.1376C91.3121 59.6585 91.4488 60.2341 91.4488 60.8178C91.4488 61.4016 91.3121 61.9772 91.0497 62.4981ZM89.5912 62.3448C89.955 61.9193 90.155 61.377 90.155 60.8163C90.155 60.2555 89.955 59.7133 89.5912 59.2878C89.1515 58.9024 88.5781 58.7067 87.9956 58.7433H87.1106V62.8892H87.9956C88.5781 62.9258 89.1515 62.7302 89.5912 62.3448Z" fill="#AFB1B8"/>
<path d="M75.7886 22C75.7886 22 92.2401 28.236 91.8911 37.2599V52.5229C91.8911 52.5229 75.452 46.2838 75.7948 37.2599L75.7886 22Z" fill="#AFB1B8"/>
<path d="M106.548 48.9497C109.655 46.8029 113.249 45.4732 117 45.0824V40.3044C112.677 41.9772 109.01 45.0102 106.548 48.9497Z" fill="#AFB1B8"/>
<path d="M104.681 50.3889C107.224 45.2477 111.633 41.2804 117 39.303V25.5356C117 25.5356 93.5708 34.4187 94.0663 47.2693V68.9999C94.0663 68.9999 95.1103 68.6025 96.7527 67.8578C96.7527 67.1632 96.7527 66.4623 96.8275 65.7583C97.3124 59.7925 100.137 54.2641 104.681 50.3889Z" fill="#AFB1B8"/>
<path d="M102.453 58.4616C102.576 56.9545 102.85 55.4638 103.272 54.0122C100.443 57.3588 98.7296 61.5116 98.3731 65.8866C98.3388 66.2996 98.3201 66.7126 98.3108 67.1382C99.6415 66.4967 101.19 65.6957 102.817 64.7539C102.402 62.684 102.279 60.5658 102.453 58.4616Z" fill="#AFB1B8"/>
<path d="M103.384 58.5398C103.228 60.4436 103.326 62.3597 103.674 64.2377C110.075 60.3922 117.268 54.4503 116.991 47.2693V46.6436C112.417 47.1573 108.138 49.1646 104.812 52.357C104.033 54.3354 103.552 56.4192 103.384 58.5398Z" fill="#AFB1B8"/>
<rect x="58" y="22" width="59" height="47" stroke="#AFB1B8"/>
</svg>

<svg width="175" height="90" fill="none" xmlns="http://www.w3.org/2000/svg"><rect x=".5" y=".5" width="174" height="89" rx="3.5" stroke="#AFB1B8"/><path d="M62.488 61.278c.23.285.352.643.346 1.01a1.605 1.605 0 01-.537 1.277c-.446.339-1 .504-1.558.466H58v-6.405h2.683a2.284 2.284 0 011.487.426 1.464 1.464 0 01.52 1.198c.016.353-.095.7-.311.98-.209.254-.496.43-.817.5.364.067.692.26.926.548zm-3.213-.967h1.147c.26.02.519-.056.729-.213a.76.76 0 00.246-.626.788.788 0 00-.243-.626 1.105 1.105 0 00-.751-.215h-1.128v1.68zm1.988 2.456a.794.794 0 00.271-.65.81.81 0 00-.277-.658 1.181 1.181 0 00-.78-.231h-1.202v1.761h1.218c.274.016.546-.062.77-.222zM67.972 64.031l-1.492-2.503h-.561v2.503h-1.284v-6.405h2.43a2.39 2.39 0 011.693.545 2.048 2.048 0 01.18 2.65c-.3.345-.709.575-1.159.65l1.59 2.56h-1.397zm-2.053-3.376h1.05c.73 0 1.094-.323 1.094-.97a.955.955 0 00-.268-.72 1.134 1.134 0 00-.826-.26h-1.063l.013 1.95zM74.99 62.742h-2.558l-.452 1.29h-1.346l2.35-6.334h1.455l2.34 6.333h-1.346l-.442-1.289zm-.342-.97l-.935-2.703-.935 2.703h1.87zM83.776 64.031H82.5l-2.857-4.355v4.355h-1.272v-6.405h1.272l2.857 4.38v-4.38h1.275v6.405zM91.05 62.498a2.757 2.757 0 01-1.153 1.13c-.555.281-1.17.42-1.792.403h-2.27v-6.405h2.27a3.816 3.816 0 011.792.395c.487.246.89.636 1.153 1.117a3.735 3.735 0 010 3.36zm-1.459-.153a2.352 2.352 0 000-3.057 2.21 2.21 0 00-1.595-.545h-.885v4.146h.885a2.21 2.21 0 001.595-.544zM75.789 22S92.24 28.236 91.89 37.26v15.263s-16.439-6.24-16.096-15.263L75.789 22zM106.548 48.95A22.486 22.486 0 01117 45.082v-4.778a21.461 21.461 0 00-10.452 8.646z" fill="#AFB1B8"/><path d="M104.681 50.389A22.383 22.383 0 01117 39.303V25.536s-23.43 8.883-22.934 21.733V69s1.044-.396 2.687-1.141c0-.695 0-1.396.075-2.1a22.604 22.604 0 017.853-15.37z" fill="#AFB1B8"/><path d="M102.453 58.462c.123-1.508.397-2.998.819-4.45a21.041 21.041 0 00-4.961 13.126 68.077 68.077 0 004.506-2.384 22.555 22.555 0 01-.364-6.292zM103.384 58.54a21.594 21.594 0 00.29 5.698c6.401-3.846 13.594-9.788 13.317-16.969v-.625a20.967 20.967 0 00-12.179 5.713 21.513 21.513 0 00-1.428 6.183z" fill="#AFB1B8"/><path stroke="#AFB1B8" d="M58 22h59v47H58z"/></svg>
